build/img/landings/target/features-2.svg

<svg width="640" height="224" viewBox="0 0 640 224" fill="none" xmlns="http://www.w3.org/2000/svg">
<path d="M579.144 88.8535H1.70703V222.962H579.144V88.8535Z" fill="#3FD1FF"/>
<path d="M578.98 223.817H1.01957C0.4758 223.817 0 223.343 0 222.801V89.0161C0 88.4742 0.4758 88 1.01957 88H578.98C579.524 88 580 88.4742 580 89.0161V222.801C580 223.343 579.524 223.817 578.98 223.817ZM2.03914 221.785H577.961V90.0322H2.03914V221.785Z" fill="black"/>
<path d="M76.0235 195.629C97.7248 195.629 115.317 178.036 115.317 156.336C115.317 134.636 97.7248 117.043 76.0235 117.043C54.3223 117.043 36.7305 134.636 36.7305 156.336C36.7305 178.036 54.3223 195.629 76.0235 195.629Z" fill="white"/>
<path d="M76.0223 196.483C53.8767 196.483 35.875 178.481 35.875 156.336C35.875 134.19 53.8767 116.188 76.0223 116.188C98.1678 116.188 116.17 134.19 116.17 156.336C116.17 178.481 98.1678 196.483 76.0223 196.483ZM76.0223 118.294C55.0316 118.294 37.9129 135.413 37.9129 156.404C37.9129 177.394 55.0316 194.513 76.0223 194.513C97.013 194.513 114.132 177.394 114.132 156.404C114.132 135.413 97.013 118.294 76.0223 118.294Z" fill="black"/>
<path d="M52.1055 149.361L71.4748 172.566L99.0863 139.252" fill="white"/>
<path d="M71.5338 173.42C71.2608 173.42 70.9196 173.285 70.7148 173.082L51.4685 150.013C51.1272 149.608 51.1955 148.934 51.605 148.597C52.0145 148.259 52.697 148.327 53.0382 148.731L71.4655 170.856L98.151 138.748C98.4923 138.344 99.1748 138.276 99.5843 138.613C99.9938 138.951 100.062 139.625 99.7208 140.03L72.2845 173.15C72.148 173.285 71.875 173.42 71.5338 173.42Z" fill="black"/>
<path d="M427.64 146.085H183.109C180.119 146.085 177.672 143.587 177.672 140.533C177.672 137.479 180.119 134.98 183.109 134.98H427.64C430.63 134.98 433.077 137.479 433.077 140.533C433.077 143.587 430.63 146.085 427.64 146.085Z" fill="white"/>
<path d="M427.486 146.94H183.269C179.671 146.94 176.82 144.04 176.82 140.533C176.82 137.027 179.739 134.127 183.269 134.127H427.486C431.083 134.127 433.934 137.027 433.934 140.533C433.934 144.04 431.083 146.94 427.486 146.94ZM183.269 136.083C180.825 136.083 178.857 138.038 178.857 140.466C178.857 142.894 180.825 144.849 183.269 144.849H427.486C429.929 144.849 431.897 142.894 431.897 140.466C431.897 138.038 429.929 136.083 427.486 136.083H183.269Z" fill="black"/>
<path d="M299.511 175.128H183.108C180.118 175.128 177.672 172.629 177.672 169.576C177.672 166.522 180.118 164.023 183.108 164.023H299.511C302.501 164.023 304.947 166.522 304.947 169.576C304.947 172.56 302.501 175.128 299.511 175.128Z" fill="white"/>
<path d="M299.365 175.983H183.259C179.667 175.983 176.82 173.083 176.82 169.576C176.82 166.07 179.735 163.17 183.259 163.17H299.365C302.957 163.17 305.804 166.07 305.804 169.576C305.804 173.083 302.89 175.983 299.365 175.983ZM183.259 165.126C180.819 165.126 178.854 167.081 178.854 169.509C178.854 171.937 180.819 173.892 183.259 173.892H299.365C301.805 173.892 303.771 171.937 303.771 169.509C303.771 167.081 301.805 165.126 299.365 165.126H183.259Z" fill="black"/>
<path d="M638.2 1.51172H434.5V127.113H638.2V1.51172Z" fill="#F9D84E"/>
<path d="M638.3 128.613H434.5C433.7 128.613 433 127.913 433 127.113V1.51172C433 0.711719 433.7 0.0117188 434.5 0.0117188H638.2C639 0.0117188 639.7 0.711719 639.7 1.51172V127.113C639.8 127.913 639.1 128.613 638.3 128.613ZM436 125.613H636.7V3.01172H436V125.613Z" fill="black"/>
<path d="M536.298 80.2125C535.998 80.2125 535.698 80.1125 535.398 79.9125L433.698 2.71251C432.998 2.21251 432.898 1.31253 433.398 0.61253C433.898 -0.0874695 434.798 -0.187518 435.498 0.312482L536.298 76.8125L637.398 0.312482C638.098 -0.187518 638.998 -0.0874695 639.498 0.61253C639.998 1.31253 639.898 2.21251 639.198 2.71251L537.198 79.9125C536.898 80.1125 536.598 80.2125 536.298 80.2125Z" fill="black"/>
</svg>

<svg width="640" height="224" fill="none" xmlns="http://www.w3.org/2000/svg"><path d="M579.144 88.853H1.707v134.109h577.437V88.854z" fill="#3FD1FF"/><path d="M578.98 223.817H1.02c-.544 0-1.02-.474-1.02-1.016V89.016C0 88.474.476 88 1.02 88h577.96c.544 0 1.02.474 1.02 1.016v133.785c0 .542-.476 1.016-1.02 1.016zM2.04 221.785h575.92V90.032H2.039v131.753z" fill="#000"/><path d="M76.023 195.629c21.702 0 39.294-17.593 39.294-39.293s-17.592-39.293-39.293-39.293c-21.702 0-39.294 17.593-39.294 39.293s17.592 39.293 39.294 39.293z" fill="#fff"/><path d="M76.022 196.483c-22.145 0-40.147-18.002-40.147-40.147 0-22.146 18.002-40.148 40.147-40.148 22.146 0 40.148 18.002 40.148 40.148 0 22.145-18.002 40.147-40.148 40.147zm0-78.189c-20.99 0-38.11 17.119-38.11 38.11 0 20.99 17.12 38.109 38.11 38.109 20.991 0 38.11-17.119 38.11-38.109 0-20.991-17.119-38.11-38.11-38.11z" fill="#000"/><path d="M52.105 149.361l19.37 23.205 27.611-33.314" fill="#fff"/><path d="M71.534 173.42a1.27 1.27 0 01-.82-.338L51.47 150.013c-.342-.405-.273-1.079.136-1.416.41-.338 1.092-.27 1.433.134l18.428 22.125 26.685-32.108c.341-.404 1.024-.472 1.433-.135.41.338.478 1.012.137 1.417l-27.437 33.12c-.136.135-.409.27-.75.27z" fill="#000"/><path d="M427.64 146.085H183.109c-2.99 0-5.437-2.498-5.437-5.552 0-3.054 2.447-5.553 5.437-5.553H427.64c2.99 0 5.437 2.499 5.437 5.553s-2.447 5.552-5.437 5.552z" fill="#fff"/><path d="M427.486 146.94H183.269c-3.598 0-6.449-2.9-6.449-6.407 0-3.506 2.919-6.406 6.449-6.406h244.217c3.597 0 6.448 2.9 6.448 6.406 0 3.507-2.851 6.407-6.448 6.407zm-244.217-10.857c-2.444 0-4.412 1.955-4.412 4.383s1.968 4.383 4.412 4.383h244.217c2.443 0 4.411-1.955 4.411-4.383s-1.968-4.383-4.411-4.383H183.269z" fill="#000"/><path d="M299.511 175.128H183.108c-2.99 0-5.436-2.499-5.436-5.552 0-3.054 2.446-5.553 5.436-5.553h116.403c2.99 0 5.436 2.499 5.436 5.553 0 2.984-2.446 5.552-5.436 5.552z" fill="#fff"/><path d="M299.365 175.983H183.259c-3.592 0-6.439-2.9-6.439-6.407 0-3.506 2.915-6.406 6.439-6.406h116.106c3.592 0 6.439 2.9 6.439 6.406 0 3.507-2.914 6.407-6.439 6.407zm-116.106-10.857a4.385 4.385 0 00-4.405 4.383 4.385 4.385 0 004.405 4.383h116.106a4.386 4.386 0 004.406-4.383 4.386 4.386 0 00-4.406-4.383H183.259z" fill="#000"/><path d="M638.2 1.512H434.5v125.601h203.7V1.512z" fill="#F9D84E"/><path d="M638.3 128.613H434.5c-.8 0-1.5-.7-1.5-1.5V1.512c0-.8.7-1.5 1.5-1.5h203.7c.8 0 1.5.7 1.5 1.5v125.601c.1.8-.6 1.5-1.4 1.5zm-202.3-3h200.7V3.012H436v122.601z" fill="#000"/><path d="M536.298 80.213c-.3 0-.6-.1-.9-.3l-101.7-77.2c-.7-.5-.8-1.4-.3-2.1.5-.7 1.4-.8 2.1-.3l100.8 76.5 101.1-76.5c.7-.5 1.6-.4 2.1.3s.4 1.6-.3 2.1l-102 77.2c-.3.2-.6.3-.9.3z" fill="#000"/></svg>
